X:1
T:Jakarta, 12.12.12.12
T:Jakarta, 12.12.12.12
T:Uzziah Christopher Burnap, 1899
T:Public Domain Courtesy of the Cyber Hymnal™
C:Uzziah Christopher Burnap, 1899
Z:Public Domain
Z:Courtesy of the Cyber Hymnal™
%%score ( 1 2 ) ( 3 4 )
L:1/8
Q:1/4=100
M:6/8
K:G
V:1 treble 
V:2 treble 
V:3 bass 
V:4 bass 
V:1
 [B,D][B,E][B,F] (GA)[B,G] | ([CG]3 [CF]3) | [B,F][B,^E][B,F] [^DB]2 [DF] | [EG]6 | %4
 [EG][EF][EG] [EA]2 E | [DF]3 [DG]3 | [DA]2 D (GF)[=CE] | D6 | [FA][^E^G][FA] (cB)[FA] | G6 | %10
 [DB][^C^A][DB] [=Fd][E=c][DB] | [CA]6 | [CA][B,^G][CA] [DB]2 D | [CE]3 [CG]3 | %14
 [CF]2 [Ec] [DB]2 [CA] | [B,G]6 |] %16
V:2
 x3 B,2 x | x6 | x6 | x6 | x5 E | x6 | x2 D ^C2 x | D6 | x3 F2 x | G6 | x6 | x6 | x5 D | x6 | x6 | %15
 x6 |] %16
V:3
 [G,,D,][G,,D,][G,,D,] [G,,D,]2 [G,,D,] | [A,,D,]6 | [B,,^D,][B,,D,][B,,D,] [B,,F,]2 [B,,B,] | %3
 [E,B,]6 | [^C,A,][C,A,][C,A,] [C,A,]2 [C,A,] | [D,A,]3 (D,2 E,) | [A,,F,]2 [A,,F,] (B,A,)[A,,G,] | %7
 [D,F,]6 | [D,C][D,B,][D,C] (ED)[D,C] | [G,B,]6 | [E,^G,][E,G,][E,G,] [E,G,]2 [E,G,] | A,6 | %12
 [D,F,][D,F,][D,F,] G,2 [B,,G,] | [C,G,]3 [E,G,]3 | [D,A,]2 [D,A,] [D,E,]2 [D,F,] | [G,,G,]6 |] %16
V:4
 x6 | x6 | x6 | x6 | x6 | x3 B,,3 | x3 A,,2 x | x6 | x3 D,2 x | x6 | x6 | A,6 | x3 G,2 x | x6 | %14
 x6 | x6 |] %16

